X:1
T:The Light of the Holy City
T:Lyman F. Jackson
T:The Light of the Holy City
T:Public Domain
T:Public Domain
T:Public Domain
C:Lyman F. Jackson
Z:Public Domain
%%score ( 1 2 ) ( 3 4 )
L:1/8
M:4/4
K:C
V:1 treble 
V:2 treble 
V:3 bass 
V:4 bass 
V:1
 [CE]2 | [CE]3 [CE] [_B,E]2 [B,E]2 | [B,F]2 [B,F]4 [C^F]2 | [CG]3 [CG] [D^G]2 [DG]2 | [CA]6 [FA]2 | %5
w: 1.~There|is a ho- ly|ci- ty, Whose|build- er is our|God; No|
w: 2.~No|need with- in that|ci- ty, Of|sun or moon to|shine; Je-|
w: 3.~No|man could ev- er|num- ber The|ran- somed ga- thered|there, Ar-|
w: 4.~The|count- less hosts of|Heav- en His|wor- thy praise pro-|claim, As-|
 [FA]3 [FA] [DB]2 [Fc]2 | [Ec]3 [EG] [EG]2 [EG]2 | [D^F]3 [DF] [Fc]2 [Fc]2 | [FB]6 [FG]2 | %9
w: eye hath seen its|man- sions fair, No|foot its courts hath|trod. The|
w: ho- vah’s pre- sence|lights the scene With|ra- diance most di-|vine; No|
w: rayed in blood- washed|robes of white The|palms of vic- t’ry|bear; Be-|
w: crib- ing hon- or,|bless- ing, power And|glo- ry to His|Name. In|
 [EG]3 [Ec] [Ge]2 [Gc]2 | [Fc]2 [FA]4 [FA]2 | [^FA]3 [FB] [Fc]2 [FA]2 | [Fd]6 [FG]2 | %13
w: wealth of its found-|a- tions, Its|streets of pur- est|gold, The|
w: shade of night e’er|fall- eth, To|dim the splen- dor|bright; The|
w: fore God’s throne they|wor- ship And|serve Him night and|day; And|
w: cease- less al- le-|lu- ias They|chant e- ter- nal|psalm, And|
 [EG]3 [Ec] [Ge]2 [Gc]2 | [FB]3 [FA] [FA]2 [_EA]2 | [EG]3 [EG] [Fd]2 [Ec]2 | [Ec]6 z || %17
w: glo- ry of its|gates of pearl, No|tongue hath ev- er|told.|
w: Lamb of God on|Cal- v’ry slain, For-|ev- er is the|light.|
w: ev- ery tear from|ev- ery eye His|hand shall wipe a-|way.|
w: cry, “Sal- va- tion|to our God! Sal-|va- tion to the|Lamb!”|
[M:12/8]"^Refrain" [EG] | [EG]3 [EA]2 [EB] [Ed]3 [Ec]2 [EA] | [Fc] [FB]4 [F^A] [FB]3- [FB]2 [F=A] | %20
w: |||
w: The|Lamb is the light of that|ci- ty a- bove, * The|
w: |||
w: |||
 [FG]3 [FB]2 [Ec] [Fd]3 [A^d]3 | [^Ge]6- [Ge]3- [Ge]2 [Ge] | [Af]3 [Bf]2 [Ge] [Fd]3 [Fd]2 [A^d] | %23
w: |||
w: light that shall ne- ver|cease! * * And|all shall be- hold Him, whose|
w: |||
w: |||
 [^Ge]3 [Ge]2 [Bd] [Ac]3 [^DB]2 [DA] | [EG]3 [FB]2 [Ec] [Ge] [Ge]4 [Fd] | (E E2 [Fc-]3 [Ec]3) z |] %26
w: |||
w: in- fi- nite love Leads them|home to that ci- ty of|peace. * * *|
w: |||
w: |||
V:2
 x2 | x8 | x8 | x8 | x8 | x8 | x8 | x8 | x8 | x8 | x8 | x8 | x8 | x8 | x8 | x8 | x7 ||[M:12/8] x | %18
 x12 | x12 | x12 | x12 | x12 | x12 | x12 | c3- x7 |] %26
V:3
 [C,G,]2 | [C,G,]3 [C,G,] [^C,G,]2 [C,G,]2 | [D,G,]2 [D,G,]4 [^D,A,]2 | %3
 [E,G,]3 [E,G,] [E,B,]2 [E,B,]2 | [F,A,]6 [F,C]2 | [F,C]3 [F,C] [F,_A,]2 [F,A,]2 | %6
 [C,G,]3 [C,C] [C,C]2 [C,C]2 | [D,C]3 [D,C] [D,A,]2 [D,D]2 | [G,D]6 [G,D]2 | %9
 [C,C]3 [C,G,] [C,G,]2 [E,G,]2 | [F,A,]2 [F,C]4 [F,C]2 | [D,C]3 [D,B,] [D,A,]2 [D,C]2 | %12
 [G,B,]6 [G,B,]2 | [C,C]3 [C,G,] [C,C]2 [E,G,]2 | [F,A,]3 [F,C] [F,C]2 [^F,C]2 | %15
 [G,C]3 [G,C] [G,B,]2 [C,G,]2 | [C,G,]6 z ||[M:12/8] [C,C] | %18
 [C,C]3 [C,C]2 [C,G,] [C,G,]3 [C,G,]2 [C,C] | [G,D] [G,D]4 [G,^C] [G,D]3- [G,D]2 [G,=C] | %20
 [G,B,]3 [G,D]2 [G,C] [G,B,]3 C2 A, | (C3 C3 [E,B,]3- [E,B,]2) [E,B,] | %22
 [D,D]3 [G,D]2 [G,C] [G,B,]3 [G,B,]2 [F,A,] | [E,B,]3 [E,B,]2 [^G,E] [A,E]3 [^F,A,]2 [F,C] | %24
 [G,C]3 [G,D]2 [G,C] [G,B,] [G,B,]4 [G,B,] | (C G,2 [C,A,]3 [C,G,]3) z |] %26
V:4
 x2 | x8 | x8 | x8 | x8 | x8 | x8 | x8 | x8 | x8 | x8 | x8 | x8 | x8 | x8 | x8 | x7 ||[M:12/8] x | %18
 x12 | x12 | x9 F,3 | E,6- x6 | x12 | x12 | x12 | C,3 x7 |] %26

